X:1
T:Title
%%score { ( 1 3 5 ) | ( 2 4 ) }
L:1/8
Q:1/4=106
M:3/4
K:G
V:1 treble nm="Grand Piano"
V:3 treble 
V:5 treble 
V:2 bass 
V:4 bass 
V:1
 G2 F2 G2 | d2 [Fc]2 [GB]2 | [EA]2 GF GA | G4 F2 | G2 F2 G2 | A2 B2 [G,DG]2 | z2[K:bass] E4 | %7
w: G.~F.~Handel * *|||||||
 [F,D]6 | z2 z2 .F2 | F4 z2 | [Dd]2 [G,E]2 .[A,CF]2 | [A,F]3 E D2 | G2 F2 G2 | A2 B2 c2 | %14
w: |||||||
 BA z B, z G | [B,G]6 |] %16
w: ||
V:2
 [G,B,D]2 [A,CD]2 [G,B,D]2 | [F,A,D]2 [D,A,]2 [E,G,]2 | [C,C]2 [D,B,D]2 [E,A,^C]2 | %3
 [D,A,D]4 [D,A,D]2 | [B,D]2 [A,CD]2 [G,B,D]2 | [F,A,D]2 [D,F,D]2 B,,2 | z E z F, z D | D,6 | %8
 [B,,G,]2 C,2 A,,2 | [D,A,]2 z E, [C,F,]2 | [B,,G,]2 C,2 z G | z2 z G, [D,F,]2 | %12
 [B,D]2 [A,CD]2 [G,B,D]2 | [F,A,D]2 [D,F,D]2 [E,G,C]2 | [C,G,]2 .[D,G,A,]2 [D,F,]2 | [G,,G,]6 |] %16
V:3
 x6 | x6 | x6 | x6 | x6 | x6 | .[B,DF]2[K:bass] .[E,D]2 [G,^C]2 | x6 | [Dd]2 [G,E]2 [A,C]-[A,CG] | %9
 z2 z E D2 | x6 | x6 | x6 | x6 | E2 A4 | x6 |] %16
V:4
 x6 | x6 | x6 | x6 | x6 | x6 | G,,2 A,,2 A,,2 | x6 | x6 | z2 D,2 z2 | z2 z2 A,,2 | D,4 z2 | x6 | %13
 x6 | x6 | x6 |] %16
V:5
 x6 | x6 | x6 | x6 | x6 | x6 | x2[K:bass] x4 | x6 | x6 | z2 A,2 z2 | x6 | x6 | x6 | x6 | z2 z2 C2 | %15
 x6 |] %16

